24x24/status/clipit-trayicon.svg

<svg height="22" width="22" xmlns="http://www.w3.org/2000/svg"><path d="m11 3c-1.1046 0-2 .89543-2 2h-2v.00586c-1.113.032581-2 .93345-2 2.0547v8.8789c0 1.142.91853 2.0605 2.0605 2.0605h7.8789c1.142 0 2.0605-.91853 2.0605-2.0605v-8.8789c0-1.142-.91853-2.0605-2.0605-2.0605h-1.9394c0-.138-.0053-.27625-.03125-.40625-.19615-.93036-1.0179-1.5956-1.9688-1.5938zm-.01172 1c.0039-.0000229.0078-.0000229.01172 0 .414 0 .75425.266.90625.625.05689.11716.08882.24486.09375.375-.000061.88813-1.0716 1.3352-1.7031.71094-.63157-.62426-.19666-1.7005.69141-1.7109zm-3.9883 2h2v1s-1 0-1 1h6c0-.75-.56275-.953-.84375-1h-.15625v-1h2c.554 0 1 .446 1 1v9c0 .554-.446 1-1 1h-8c-.554 0-1-.446-1-1v-9c0-.554.446-1 1-1z" fill="#fff"/></svg>

<svg height="22" width="22" xmlns="http://www.w3.org/2000/svg">
    <path d="M11 3a2 2 0 0 0-2 2H7v.006c-1.113.032-2 .933-2 2.055v8.878C5 17.081 5.919 18 7.06 18h7.88c1.141 0 2.06-.919 2.06-2.06V7.06C17 5.92 16.08 5 14.94 5H13c0-.138-.005-.276-.031-.406A2.008 2.008 0 0 0 11 3zm-.012 1A1 1 0 0 1 11 4c.414 0 .754.266.906.625A.94.94 0 0 1 12 5c0 .888-1.072 1.335-1.703.71-.632-.623-.197-1.7.691-1.71zM7 6h2v1S8 7 8 8h6c0-.75-.563-.953-.844-1H13V6h2c.554 0 1 .446 1 1v9c0 .554-.446 1-1 1H7c-.554 0-1-.446-1-1V7c0-.554.446-1 1-1z" fill="#f4f4f7"/>
</svg>
